assets/10.svg

<svg width="15" height="26" viewBox="0 0 15 26" fill="none" xmlns="http://www.w3.org/2000/svg">
<path d="M14.5469 1.24527C14.984 1.66064 15.0238 2.31062 14.6661 2.76865L14.5469 2.89987L3.92741 12.9924L14.5469 23.0849C14.984 23.5003 15.0238 24.1503 14.6661 24.6083L14.5469 24.7395C14.1099 25.1549 13.4259 25.1927 12.9439 24.8528L12.8058 24.7395L1.31521 13.8197C0.878127 13.4043 0.838392 12.7543 1.196 12.2963L1.31521 12.1651L12.8058 1.24527C13.2866 0.788361 14.0661 0.788361 14.5469 1.24527Z" fill="#F14F02"/>
</svg>

<svg width="15" height="26" fill="none" xmlns="http://www.w3.org/2000/svg"><path d="M14.547 1.245c.437.416.477 1.066.12 1.524l-.12.13-10.62 10.093 10.62 10.093c.437.415.477 1.065.12 1.523l-.12.131a1.28 1.28 0 0 1-1.603.114l-.138-.114-11.49-10.92a1.127 1.127 0 0 1-.12-1.523l.12-.13 11.49-10.92a1.277 1.277 0 0 1 1.74 0Z" fill="#F14F02"/></svg>
